static/github.svg

<?xml version="1.0" encoding="UTF-8"?>
<svg width="30px" height="30px" viewBox="0 0 30 30" version="1.1" xmlns="http://www.w3.org/2000/svg" xmlns:xlink="http://www.w3.org/1999/xlink">
    <!-- Generator: Sketch 46.2 (44496) - http://www.bohemiancoding.com/sketch -->
    <title>Group 3</title>
    <desc>Created with Sketch.</desc>
    <defs></defs>
    <g id="Page-1" stroke="none" stroke-width="1" fill="none" fill-rule="evenodd">
        <g id="Artboard" transform="translate(-46.000000, -32.000000)">
            <g id="Group-3" transform="translate(46.000000, 32.000000)">
                <circle id="Oval-2" fill="#FFD186" cx="15" cy="15" r="15"></circle>
                <path d="M14.9993554,8 C11.1344117,8 8,11.133982 8,15.0002149 C8,18.0929433 10.005525,20.7164124 12.7871328,21.6420394 C13.1373584,21.7064981 13.2649866,21.4903465 13.2649866,21.3047055 C13.2649866,21.1388318 13.2589705,20.698364 13.2555327,20.1143682 C11.3084502,20.5372172 10.8976334,19.1758495 10.8976334,19.1758495 C10.5792075,18.3671076 10.1202615,18.1518156 10.1202615,18.1518156 C9.48469873,17.7177937 10.1683907,17.7263882 10.1683907,17.7263882 C10.8709905,17.7758065 11.2405537,18.4478959 11.2405537,18.4478959 C11.8649437,19.5174806 12.8790939,19.2085085 13.2778784,19.0293134 C13.3414776,18.577243 13.5223917,18.2687007 13.7222137,18.0938028 C12.1678996,17.9171859 10.5336566,17.3164308 10.5336566,14.6340894 C10.5336566,13.870039 10.8065318,13.2447896 11.2543049,12.7557629 C11.1821112,12.5787164 10.9418951,11.8666626 11.3230609,10.9032199 C11.3230609,10.9032199 11.9104945,10.7150005 13.2477977,11.6208601 C13.80601,11.4652997 14.4050462,11.3879493 15.0002149,11.3849412 C15.5949538,11.3879493 16.1935603,11.4652997 16.7526321,11.6208601 C18.0890758,10.7150005 18.67565,10.9032199 18.67565,10.9032199 C19.0576752,11.8666626 18.8174591,12.5787164 18.7456951,12.7557629 C19.1943276,13.2447896 19.4650542,13.870039 19.4650542,14.6340894 C19.4650542,17.3233064 17.8282329,17.9150373 16.2691918,18.0882163 C16.520151,18.3043678 16.7440376,18.7315142 16.7440376,19.3846957 C16.7440376,20.3202063 16.7354431,21.0752325 16.7354431,21.3047055 C16.7354431,21.4920654 16.8617821,21.7099358 17.2167347,21.6416096 C19.9961939,20.7138341 22,18.0920839 22,15.0002149 C22,11.133982 18.8655883,8 14.9993554,8" id="Fill-3" fill="#162027"></path>
            </g>
        </g>
    </g>
</svg>

<svg xmlns="http://www.w3.org/2000/svg" viewBox="0 0 30 30"><g fill="none" fill-rule="evenodd"><circle fill="#FFD186" cx="15" cy="15" r="15"/><path d="M15 8a7 7 0 00-2.213 13.642c.35.064.478-.152.478-.337 0-.166-.006-.607-.01-1.19-1.947.422-2.357-.94-2.357-.94-.319-.808-.778-1.023-.778-1.023-.635-.434.048-.426.048-.426.703.05 1.073.722 1.073.722.624 1.07 1.638.76 2.037.581.063-.452.244-.76.444-.935-1.554-.177-3.188-.778-3.188-3.46 0-.764.273-1.39.72-1.878-.072-.177-.312-.89.07-1.853 0 0 .586-.188 1.924.718A6.705 6.705 0 0115 11.385c.595.003 1.194.08 1.753.236 1.336-.906 1.923-.718 1.923-.718.382.964.141 1.676.07 1.853a2.7 2.7 0 01.72 1.878c0 2.69-1.638 3.281-3.197 3.454.251.216.475.644.475 1.297 0 .935-.009 1.69-.009 1.92 0 .187.127.405.482.337A7 7 0 0015 8" fill="#162027"/></g></svg>
